!!!COM: Chopin, Frederic
!!!CDT: 1810///-1849///
!!!OTL: Mazurka in F Minor, Op. 68, No. 4
!!!OPS: Op. 68
!!!ONM: No. 4
!!!OMD: Andantino
!!!ODT: ~1846///
!!!PDT: 1855///
!!!PPP: Berlin
!!!ONB: Realized in 1852 by A. Franchomme from sketch
!!!AIN: piano
**kern	**kern	**dynam
*staff2	*staff1	*staff1/2
*Ipiano	*Ipiano	*Ipiano
*>[I,A,B,A,B,A]	*>[I,A,B,A,B,A]	*>[I,A,B,A,B,A]
*>norep[I,A,B,A]	*>norep[I,A,B,A]	*>norep[I,A,B,A]
*>I	*>I	*>I
*clefF4	*clefG2	*clefG2
*k[b-e-a-d-]	*k[b-e-a-d-]	*k[b-e-a-d-]
*f:	*f:	*f:
*M3/4	*M3/4	*M3/4
*MM126	*MM126	*MM126
=1-	=1-	=1-
!	!LO:TX:b:i:t=sotto voce	!
4r	[4cc	.
4A- 4c 4f	8ccL]	.
.	8dd-J	.
4A- 4c 4f	8dd-L	.
.	8ccJ	.
=2||	=2||	=2||
*>A	*>A	*>A
!	!LO:TX:b:i:t=legatissimo	!
4r	8bntL	.
.	8a#J	.
4G 4dn 4f	4b	<
4G 4d- 4f	4gg	[
=3	=3	=3
4r	[4b-X	.
4G- 4d- 4f-	8b-L]	.
.	8ccJ	.
4G- 4c 4e-	8ccL	.
.	8b-J	.
=4	=4	=4
4r	8antL	.
.	8g#J	.
4F 4c 4e-	4a	<
4F 4c- 4e-	4ff	[
=5	=5	=5
4r	[4a-X	.
4F 4Bn 4dn	8a-L]	.
.	8b-XJ	.
4En 4B 4d	8b-L	.
.	8a-J	.
=6	=6	=6
4r	8gtL	.
.	8f#J	.
4En 4B-X 4d-X	4g	<
4Fn 4B- 4fn	4dd-	[
=7	=7	=7
*	*^	*
4r	[4cc	4r	.
4G 4B- 4d-	(8ccL]	4en	.
.	8b-	.	.
4C 4B-	8a-	4e	.
.	8gJ)	.	.
*	*v	*v	*
=8	=8	=8
4r	(8b-L	<
.	8a-	(
*ped	*	*
4FF	8f	(
.	8g	(
4F 4A- 4d-	8a-	(
.	8bnJ)	[
*Xped	*	*
=9	=9	=9
4r	[4cc	.
*ped	*	*
4F 4A- 4c	8ccL]	.
.	(8dd-	.
4A- 4c 4f	8bn	.
.	8dd-J)	.
*Xped	*	*
=10	=10	=10
4r	(8ccL	.
.	8a#	.
4G 4dn 4f	8bn	.
.	8aa-X	.
4G 4d- 4f	8gg	.
.	8bJ)	.
=11	=11	=11
!	!LO:TX:b:i:t=sempre legatissimo	!
4r	[4b-X	.
4G 4d- 4f-	8b-L]	.
.	8ccJ	.
4G- 4d- 4f-	8ccL	.
.	8b-J	.
=12	=12	=12
4r	(8b-L	.
.	8g#	.
4F 4c 4e-	8an	.
.	8gg-	.
4F 4c- 4e-	8ff	.
.	8aJ)	.
=13	=13	=13
4r	[4a-X	.
4F 4c- 4e-	(8a-L]	.
.	8cc-	.
4F- 4c- 4e--	8b-	.
.	8a-J)	.
=14	=14	=14
4r	4g	.
!	!LO:TX:i:b:t=cresc.	!
4F- 4B- 4dn	(8g#L	.
.	8an	.
4En 4G# 4d	8a#)	.
.	8bnJ	.
=15	=15	=15
*ped	*	*
4AAn	(8cc#L	.
.	8ddn	.
4En 4c#	8dd#	.
.	8een	.
4r	8aan	.
.	8gg#J)	.
*Xped	*	*
=16	=16	=16
*ped	*	*
4AAn	(8ff#L	>
.	8een	)
4F# 4dn	8ddn	)
.	8g#	)
*Xped	*	*
4En 4d	8an	)
.	8bnJ)	]
=17	=17	=17
*ped	*	*
4AAn	(8cc#L	<
.	8ddn	(
4En 4c#	8dd#	(
.	8een	(
4E 4c#	8aan	(
.	8gg#J	[
*Xped	*	*
=18	=18	=18
*ped	*	*
4AAn	8ff#L	>
.	8een	)
4F# 4dn	8ddn	)
.	8g#	)
*Xped	*	*
4En 4d	8an	)
.	8bnJ)	]
=19	=19	=19
4AAn	4cc#	.
4r	(8bnL	<
.	8ccn	(
4Fn 4cn 4e-	8ff	(
.	8eenJ)	[
=20	=20	=20
*ped	*	*
4BB-	(8ee-\L	>
.	8ddn\	)
4F 4d-	8dd-\	)
.	8en\	)
*Xped	*	*
4C 4En 4B-	8f\	)
.	8gJ\)	]
=21	=21	=21
*ped	*	*
4FF	(8a-L	<
.	8b-	(
4C 4A-	8bn	(
.	8cc	(
*Xped	*	*
4r	8ff	(
.	8eenJ)	[
=22	=22	=22
4r	(8ee-\L	>
.	8ddn\	)
4D- 4A-	8dd-\	)
.	8en\	)
4C 4B-	8f\	)
.	8a-/q	.
.	8gJ\)	]
=23	=23	=23
*ped	*	*
4FF	8fTL	.
.	8enJ	.
!	!LO:TX:b:i:t=(Fine)	!
4C 4A-	2f	.
.	.	.
*Xped	*	*
4C- 4A-	.	.
=24	=24	=24
*>B	*>B	*>B
*ped	*	*
4EE-	2b-	mf
4E- 4G 4d-	.	.
4E- 4G 4d-	(8ccL	.
.	8gJ)	.
*Xped	*	*
=25	=25	=25
*ped	*	*
4AA-	(8a-L	.
.	8c	.
4E- 4A- 4c	8e-	.
.	8a-	.
*Xped	*	*
4Dn 4F 4c	8bn	.
.	8ccJ)	.
=26	=26	=26
*ped	*	*
4GG	4ddn	.
4G 4f	(8ee-L	.
.	8gg	.
*Xped	*	*
4G 4dn 4f	8ff	.
.	8bnJ)	.
=27	=27	=27
*ped	*	*
4C	2cc	.
4G 4c 4e-	.	.
4G 4c 4e-	4g	.
.	.	.
*Xped	*	*
=28	=28	=28
*ped	*	*
4GG	2ddn^	.
4G 4Bn 4f	.	.
4G 4f	(8ee-L	.
.	8bnJ)	.
*Xped	*	*
=29	=29	=29
*ped	*	*
4C	4ccT	.
4G 4c 4e-	(8bnL	<
.	8cc	(
4G 4c 4e-	8ddn	(
.	8ee-J)	[
*Xped	*	*
=30	=30	=30
*ped	*	*
*	*^	*
4AA-	4ryy	4ff	<
4A- 4c 4f	4ryy	8eenL	(
.	.	8ffJ	[
*Xped	*	*	*
4DDn	8ggL	[4cc	.
.	8aa-J	.	.
=31	=31	=31	=31
4GG	[2.gg	(8ccL]	.
.	.	8bn	.
4r	.	8een	.
.	.	8dd#	.
4r	.	8ddn	.
.	.	8cc#J)	.
*clefG2	*	*	*
=32	=32	=32	=32
4r	4gg]	4ccn	pp
4dn (4an	(8ff#L	4cc	.
.	8gg	.	.
!	!LO:TX:b:i:t=sempre legato	!	!
4d 4f#)	8bbn	[4cc	.
.	8aanJ)	.	.
=33	=33	=33	=33
*^	*	*	*
4r	4ryy	4ddn	4cc]	.
8dnL	4G	[2ffn	8bnL	.
8en	.	.	8cc	.
8g	4G	.	8een	.
8fJ	.	.	8ddJ	.
*v	*v	*	*	*
=34	=34	=34	=34
4d-X	4ff]	4b-X	.
4c 4f	(8eenL	4b-	.
.	8ff	.	.
4en	8aan	[4b-	.
.	8ggJ)	.	.
=35	=35	=35	=35
*^	*	*	*
4e-X	4ryy	4cc	4b-]	.
(8cL	4F	[2ee-X	(8anL	.
8dn	.	.	8b-	.
8f	4F	.	8ddn	.
8e-J	.	.	8ccJ)	.
*v	*v	*	*	*
=36	=36	=36	=36
4c-)	4ee-]	4a-X	.
4B- 4e-	8ddnL	4a-	.
.	8ee-	.	.
4B- 4dn	8gg	[4a-	.
.	&(8ffJ&)	.	.
*clefF4	*	*	*
=37	=37	=37	=37
*^	*	*	*
4r	4ryy	4b-	4a-]	.
4B-	8F-L	2dd-X	8gL	>
.	8E-J	.	8f#J	]
4B-	4E-	.	[4g	.
=38	=38	=38	=38	=38
4c	4E-	4an	4g]	.
4An	8E-L	2cc	8f#L	>
.	8DnJ	.	8e#J	]
4A	4D	.	[4f#	.
=39	=39	=39	=39	=39
4Bn	4Dn	4g#	4f#]	.
4A-X	4D	2bn	8fnL	>
.	.	.	8enJ	]
4A-	4D-	.	[4f	.
*v	*v	*	*	*
=40	=40	=40	=40
*ped	*	*	*
!LO:TX:b:i:t=D.C. al segno senza fine	!	!	!
4C	[4cc	4f]	.
4A- 4c 4f	8ccL]	4r	.
.	8dd-J	.	.
4A- 4c 4f	8dd-L	4r	.
.	8ccJ	.	.
*	*v	*v	*
*Xped	*	*
=||	=||	=||
*-	*-	*-
!!!SMS: Mikuli edition, G. Schirmer (1894-1898)
!!!ENC: Craig Stuart Sapp
!!!END: 2005/03/04/
!!!EEV: 2017/01/04/
